img/filetypes/package-x-generic.svg

<?xml version="1.0" encoding="UTF-8" standalone="no"?>
<svg xmlns:rdf="http://www.w3.org/1999/02/22-rdf-syntax-ns#" xmlns="http://www.w3.org/2000/svg" height="16" width="16" version="1.0" xmlns:cc="http://creativecommons.org/ns#" xmlns:dc="http://purl.org/dc/elements/1.1/">
 <g fill-rule="evenodd" transform="matrix(.86667 0 0 .86667 -172.05 -864.43)" fill="#35537a">
  <path d="m4 3-2 2v7.539c0 0.259 0.2021 0.461 0.4609 0.461h11.078c0.259 0 0.461-0.202 0.461-0.461v-7.539l-2-2zm1 1h6l1 1h-8z" fill-rule="evenodd" transform="matrix(1.1538 0 0 1.1538 198.51 997.42)" fill="#55739a"/>
 </g>
</svg>

<?xml version="1.0" encoding="UTF-8"?>
<!DOCTYPE svg PUBLIC "-//W3C//DTD SVG 1.1//EN" "http://www.w3.org/Graphics/SVG/1.1/DTD/svg11.dtd">
<svg version="1.1" xmlns="http://www.w3.org/2000/svg" xmlns:xlink="http://www.w3.org/1999/xlink" x="0" y="0" width="16" height="16" viewBox="0, 0, 16, 16">
    <path d="M3.993,3.004 L1.993,5.004 L1.993,12.543 C1.993,12.802 2.195,13.004 2.453,13.004 L13.531,13.004 C13.79,13.004 13.992,12.802 13.992,12.543 L13.992,5.004 L11.992,3.004 z M4.992,4.004 L10.992,4.004 L11.992,5.004 L3.993,5.004 z" fill="#55739A"/>
</svg>
